report_00007_2020-12-11T15:55:29.892Z/uses-long-cache-ttl/comparison/sorted/2_vs_3.svg

<svg width="640" height="500" xmlns="http://www.w3.org/2000/svg" xmlns:xlink="http://www.w3.org/1999/xlink"><path fill="#fff" d="M0 0h640v500H0z"/><defs><path id="d" stroke-width=".222" stroke="currentColor" d="M-1-1h2v2h-2z"/><path id="b" stroke-width=".222" stroke="currentColor" d="M0-1.33l-1.33 2h2.66z"/><path id="f" stroke-width=".222" stroke="currentColor" d="M0 1.33L1.265.411.782-1.067l-1.564-.009-.483 1.487z"/><use xlink:href="#b" id="c" stroke="currentColor" transform="rotate(180)"/><use xlink:href="#d" id="e" stroke="currentColor" transform="rotate(45)"/><circle id="a" stroke-width=".222" stroke="currentColor" cx="0" cy="0" r="1"/></defs><g fill="none" color="#000" stroke="currentColor"><path stroke="#000" d="M78.8 405.8h9m527.2 0h-9"/><text transform="translate(70.5 409.7)" stroke="none" fill="#000" font-family="Arial" font-size="12" text-anchor="end"><tspan>559100</tspan></text></g><g fill="none" color="#000" stroke="currentColor"><path stroke="#000" d="M78.8 328.6h9m527.2 0h-9"/><text transform="translate(70.5 332.5)" stroke="none" fill="#000" font-family="Arial" font-size="12" text-anchor="end"><tspan>559150</tspan></text></g><g fill="none" color="#000" stroke="currentColor"><path stroke="#000" d="M78.8 251.4h9m527.2 0h-9"/><text transform="translate(70.5 255.3)" stroke="none" fill="#000" font-family="Arial" font-size="12" text-anchor="end"><tspan>559200</tspan></text></g><g fill="none" color="#000" stroke="currentColor"><path stroke="#000" d="M78.8 174.2h9m527.2 0h-9"/><text transform="translate(70.5 178.1)" stroke="none" fill="#000" font-family="Arial" font-size="12" text-anchor="end"><tspan>559250</tspan></text></g><g fill="none" color="#000" stroke="currentColor"><path stroke="#000" d="M78.8 97h9M615 97h-9"/><text transform="translate(70.5 100.9)" stroke="none" fill="#000" font-family="Arial" font-size="12" text-anchor="end"><tspan>559300</tspan></text></g><g fill="none" color="#000" stroke="currentColor"><path stroke="#000" d="M78.8 19.8h9m527.2 0h-9"/><text transform="translate(70.5 23.7)" stroke="none" fill="#000" font-family="Arial" font-size="12" text-anchor="end"><tspan>559350</tspan></text></g><g fill="none" color="#000" stroke="currentColor"><path stroke="#000" d="M78.8 428v-9m0-400.9v9"/><text transform="translate(78.8 449.9)" stroke="none" fill="#000" font-family="Arial" font-size="12" text-anchor="middle"><tspan>0</tspan></text></g><g fill="none" color="#000" stroke="currentColor"><path stroke="#000" d="M133 428v-9m0-400.9v9"/><text transform="translate(133 449.9)" stroke="none" fill="#000" font-family="Arial" font-size="12" text-anchor="middle"><tspan>10</tspan></text></g><g fill="none" color="#000" stroke="currentColor"><path stroke="#000" d="M187.1 428v-9m0-400.9v9"/><text transform="translate(187.1 449.9)" stroke="none" fill="#000" font-family="Arial" font-size="12" text-anchor="middle"><tspan>20</tspan></text></g><g fill="none" color="#000" stroke="currentColor"><path stroke="#000" d="M241.3 428v-9m0-400.9v9"/><text transform="translate(241.3 449.9)" stroke="none" fill="#000" font-family="Arial" font-size="12" text-anchor="middle"><tspan>30</tspan></text></g><g fill="none" color="#000" stroke="currentColor"><path stroke="#000" d="M295.4 428v-9m0-400.9v9"/><text transform="translate(295.4 449.9)" stroke="none" fill="#000" font-family="Arial" font-size="12" text-anchor="middle"><tspan>40</tspan></text></g><g fill="none" color="#000" stroke="currentColor"><path stroke="#000" d="M349.6 428v-9m0-400.9v9"/><text transform="translate(349.6 449.9)" stroke="none" fill="#000" font-family="Arial" font-size="12" text-anchor="middle"><tspan>50</tspan></text></g><g fill="none" color="#000" stroke="currentColor"><path stroke="#000" d="M403.8 428v-9m0-400.9v9"/><text transform="translate(403.8 449.9)" stroke="none" fill="#000" font-family="Arial" font-size="12" text-anchor="middle"><tspan>60</tspan></text></g><g fill="none" color="#000" stroke="currentColor"><path stroke="#000" d="M457.9 428v-9m0-400.9v9"/><text transform="translate(457.9 449.9)" stroke="none" fill="#000" font-family="Arial" font-size="12" text-anchor="middle"><tspan>70</tspan></text></g><g fill="none" color="#000" stroke="currentColor"><path stroke="#000" d="M512.1 428v-9m0-400.9v9"/><text transform="translate(512.1 449.9)" stroke="none" fill="#000" font-family="Arial" font-size="12" text-anchor="middle"><tspan>80</tspan></text></g><g fill="none" color="#000" stroke="currentColor"><path stroke="#000" d="M566.3 428v-9m0-400.9v9"/><text transform="translate(566.3 449.9)" stroke="none" fill="#000" font-family="Arial" font-size="12" text-anchor="middle"><tspan>90</tspan></text></g><path stroke="#000" d="M78.8 18.1V428H615V18.1H78.8z" fill="none" color="#000"/><text transform="translate(288.1 467.9)" stroke="none" fill="#000" font-family="Arial" font-size="12" text-anchor="end" color="#000"><tspan>pages+cached</tspan></text><path stroke="#9400D3" d="M296.4 464h42.2M78.8 420.1l5.4-323.4 5.4-.8 5.4-.7 5.5-.7 5.4-3 5.4-.1 5.4-.9h5.4l5.4-.6 5.5-.6 5.4-.5 5.4-.1 5.4-1.7h5.4l5.4-1.4 5.5-1.7 5.4-.8 5.4-.1 5.4-.4 5.4-.3 5.4-.3h5.5l5.4-.1 5.4-.3 5.4-1 5.4-.1 5.4-.9 5.5-.4 5.4-.1 5.4-.2 5.4-.4h5.4l5.4-.2 5.4-.1 5.5-.8 5.4-.5 5.4-.3 5.4-.1 5.4-.2 5.4-.1 5.5-.4 5.4-.7h5.4l5.4-.2 5.4-1.3 5.4-1.5 5.5-.3 5.4-.1 5.4-.8 5.4-1.4 5.4-.7 5.4-.5 5.5-.6 5.4-.2 5.4-.5 5.4-.3 5.4-1 5.4-.2 5.5-.1 5.4-.4 5.4-.7 5.4-.5 5.4-.5 5.4-.1 5.5-.2 5.4-.9 5.4-.8 5.4-.3 5.4-.1 5.4-.6 5.4-1 5.5-.3 5.4-.1h5.4l5.4-.5 5.4-.9 5.4-.8 5.5-.6h5.4l5.4-2h5.4l5.4-.2 5.4-.3h5.5l5.4-.1 5.4-.3 5.4-.1 5.4-.7 5.4-.3 5.5-.2 5.4-1.5 5.4-1.4 5.4-.3 5.4-.5 5.4-.3 5.5-.9 5.4-1.4 5.4-10.9L615 26" fill="none" color="#000"/><text transform="translate(288.1 485.9)" stroke="none" fill="#000" font-family="Arial" font-size="12" text-anchor="end" color="#000"><tspan>pages+cached+nointeractive</tspan></text><path stroke="#009E73" d="M296.4 482h42.2M78.8 102.9l5.4-3.3 5.4-.9 5.4-.6 5.5-2 5.4-3.3 5.4-1.5 5.4-.2 5.4-1 5.4-.7 5.5-.6 5.4-1.4 5.4-.1 5.4-.3 5.4-1.4 5.4-.3 5.5-1h10.8l5.4-.3 5.4-.1h5.4l5.5-1.1 5.4-1.1h5.4l5.4-1.2h5.4l5.4-.2 5.5-.6 5.4-.3h5.4l5.4-.5 5.4-.7 5.4-.5 5.4-.6h5.5l5.4-.1 5.4-.1 5.4-.4 5.4-.3 5.4-.3h5.5l5.4-.5 5.4-.6 5.4-.2h5.4l5.4-.4 5.5-.8h5.4l5.4-.2 5.4-.1 5.4-.7 5.4-.9 5.5-.1h5.4l5.4-.3 5.4-.3h5.4l5.4-.3 5.5-1 5.4-.1 5.4-.3 5.4-.7 5.4-.1h5.4l5.5-.2 5.4-.1h5.4l5.4-.2h5.4l5.4-.7 5.4-.1 5.5-.1h5.4l5.4-.2 5.4-.9 5.4-1.1 5.4-.3 5.5-.4 5.4-1.7 5.4-.6 5.4-.1 5.4-.6 5.4-.1 5.5-1.3 5.4-.4 5.4-.7 5.4-.1 5.4-.5 5.4-.7 5.5-.2 5.4-.4 5.4-2.3 5.4-.7h5.4l5.4-2.9 5.5-5.3 5.4-4.7 5.4-.8 5.4-1.8" fill="none" color="#000"/><text transform="translate(562.7 467.9)" stroke="none" fill="#000" font-family="Arial" font-size="12" text-anchor="end" color="#000"><tspan>score p10=28672</tspan></text><path stroke="#56B4E9" d="M571 464h42.2" fill="none" color="#000"/><g><text transform="translate(562.7 485.9)" stroke="none" fill="#000" font-family="Arial" font-size="12" text-anchor="end" color="#000"><tspan>score median=131072</tspan></text><path stroke="#E69F00" d="M571 482h42.2" fill="none" color="#000"/></g><g fill="none" color="#000" stroke="currentColor"><path stroke="#000" d="M78.8 18.1V428H615V18.1H78.8z"/></g></svg>

<?xml version="1.0" encoding="utf-8"  standalone="no"?>
<svg 
 width="640" height="500"
 viewBox="0 0 640 500"
 xmlns="http://www.w3.org/2000/svg"
 xmlns:xlink="http://www.w3.org/1999/xlink"
>

<title>Gnuplot</title>
<desc>Produced by GNUPLOT 5.4 patchlevel 0 </desc>

<g id="gnuplot_canvas">

<rect x="0" y="0" width="640" height="500" fill="#ffffff"/>
<defs>

	<circle id='gpDot' r='0.5' stroke-width='0.5' stroke='currentColor'/>
	<path id='gpPt0' stroke-width='0.222' stroke='currentColor' d='M-1,0 h2 M0,-1 v2'/>
	<path id='gpPt1' stroke-width='0.222' stroke='currentColor' d='M-1,-1 L1,1 M1,-1 L-1,1'/>
	<path id='gpPt2' stroke-width='0.222' stroke='currentColor' d='M-1,0 L1,0 M0,-1 L0,1 M-1,-1 L1,1 M-1,1 L1,-1'/>
	<rect id='gpPt3' stroke-width='0.222' stroke='currentColor' x='-1' y='-1' width='2' height='2'/>
	<rect id='gpPt4' stroke-width='0.222' stroke='currentColor' fill='currentColor' x='-1' y='-1' width='2' height='2'/>
	<circle id='gpPt5' stroke-width='0.222' stroke='currentColor' cx='0' cy='0' r='1'/>
	<use xlink:href='#gpPt5' id='gpPt6' fill='currentColor' stroke='none'/>
	<path id='gpPt7' stroke-width='0.222' stroke='currentColor' d='M0,-1.33 L-1.33,0.67 L1.33,0.67 z'/>
	<use xlink:href='#gpPt7' id='gpPt8' fill='currentColor' stroke='none'/>
	<use xlink:href='#gpPt7' id='gpPt9' stroke='currentColor' transform='rotate(180)'/>
	<use xlink:href='#gpPt9' id='gpPt10' fill='currentColor' stroke='none'/>
	<use xlink:href='#gpPt3' id='gpPt11' stroke='currentColor' transform='rotate(45)'/>
	<use xlink:href='#gpPt11' id='gpPt12' fill='currentColor' stroke='none'/>
	<path id='gpPt13' stroke-width='0.222' stroke='currentColor' d='M0,1.330 L1.265,0.411 L0.782,-1.067 L-0.782,-1.076 L-1.265,0.411 z'/>
	<use xlink:href='#gpPt13' id='gpPt14' fill='currentColor' stroke='none'/>
	<filter id='textbox' filterUnits='objectBoundingBox' x='0' y='0' height='1' width='1'>
	  <feFlood flood-color='#FFFFFF' flood-opacity='1' result='bgnd'/>
	  <feComposite in='SourceGraphic' in2='bgnd' operator='atop'/>
	</filter>
	<filter id='greybox' filterUnits='objectBoundingBox' x='0' y='0' height='1' width='1'>
	  <feFlood flood-color='lightgrey' flood-opacity='1' result='grey'/>
	  <feComposite in='SourceGraphic' in2='grey' operator='atop'/>
	</filter>
</defs>
<g fill="none" color="#FFFFFF" stroke="black" stroke-width="1.00" stroke-linecap="butt" stroke-linejoin="miter">
</g>
<g fill="none" color="black" stroke="currentColor" stroke-width="1.00" stroke-linecap="butt" stroke-linejoin="miter">
	<path stroke='black'  d='M78.8,405.8 L87.8,405.8 M615.0,405.8 L606.0,405.8  '/>	<g transform="translate(70.5,409.7)" stroke="none" fill="black" font-family="Arial" font-size="12.00"  text-anchor="end">
		<text><tspan font-family="Arial" > 559100</tspan></text>
	</g>
</g>
<g fill="none" color="black" stroke="currentColor" stroke-width="1.00" stroke-linecap="butt" stroke-linejoin="miter">
	<path stroke='black'  d='M78.8,328.6 L87.8,328.6 M615.0,328.6 L606.0,328.6  '/>	<g transform="translate(70.5,332.5)" stroke="none" fill="black" font-family="Arial" font-size="12.00"  text-anchor="end">
		<text><tspan font-family="Arial" > 559150</tspan></text>
	</g>
</g>
<g fill="none" color="black" stroke="currentColor" stroke-width="1.00" stroke-linecap="butt" stroke-linejoin="miter">
	<path stroke='black'  d='M78.8,251.4 L87.8,251.4 M615.0,251.4 L606.0,251.4  '/>	<g transform="translate(70.5,255.3)" stroke="none" fill="black" font-family="Arial" font-size="12.00"  text-anchor="end">
		<text><tspan font-family="Arial" > 559200</tspan></text>
	</g>
</g>
<g fill="none" color="black" stroke="currentColor" stroke-width="1.00" stroke-linecap="butt" stroke-linejoin="miter">
	<path stroke='black'  d='M78.8,174.2 L87.8,174.2 M615.0,174.2 L606.0,174.2  '/>	<g transform="translate(70.5,178.1)" stroke="none" fill="black" font-family="Arial" font-size="12.00"  text-anchor="end">
		<text><tspan font-family="Arial" > 559250</tspan></text>
	</g>
</g>
<g fill="none" color="black" stroke="currentColor" stroke-width="1.00" stroke-linecap="butt" stroke-linejoin="miter">
	<path stroke='black'  d='M78.8,97.0 L87.8,97.0 M615.0,97.0 L606.0,97.0  '/>	<g transform="translate(70.5,100.9)" stroke="none" fill="black" font-family="Arial" font-size="12.00"  text-anchor="end">
		<text><tspan font-family="Arial" > 559300</tspan></text>
	</g>
</g>
<g fill="none" color="black" stroke="currentColor" stroke-width="1.00" stroke-linecap="butt" stroke-linejoin="miter">
	<path stroke='black'  d='M78.8,19.8 L87.8,19.8 M615.0,19.8 L606.0,19.8  '/>	<g transform="translate(70.5,23.7)" stroke="none" fill="black" font-family="Arial" font-size="12.00"  text-anchor="end">
		<text><tspan font-family="Arial" > 559350</tspan></text>
	</g>
</g>
<g fill="none" color="black" stroke="currentColor" stroke-width="1.00" stroke-linecap="butt" stroke-linejoin="miter">
	<path stroke='black'  d='M78.8,428.0 L78.8,419.0 M78.8,18.1 L78.8,27.1  '/>	<g transform="translate(78.8,449.9)" stroke="none" fill="black" font-family="Arial" font-size="12.00"  text-anchor="middle">
		<text><tspan font-family="Arial" > 0</tspan></text>
	</g>
</g>
<g fill="none" color="black" stroke="currentColor" stroke-width="1.00" stroke-linecap="butt" stroke-linejoin="miter">
	<path stroke='black'  d='M133.0,428.0 L133.0,419.0 M133.0,18.1 L133.0,27.1  '/>	<g transform="translate(133.0,449.9)" stroke="none" fill="black" font-family="Arial" font-size="12.00"  text-anchor="middle">
		<text><tspan font-family="Arial" > 10</tspan></text>
	</g>
</g>
<g fill="none" color="black" stroke="currentColor" stroke-width="1.00" stroke-linecap="butt" stroke-linejoin="miter">
	<path stroke='black'  d='M187.1,428.0 L187.1,419.0 M187.1,18.1 L187.1,27.1  '/>	<g transform="translate(187.1,449.9)" stroke="none" fill="black" font-family="Arial" font-size="12.00"  text-anchor="middle">
		<text><tspan font-family="Arial" > 20</tspan></text>
	</g>
</g>
<g fill="none" color="black" stroke="currentColor" stroke-width="1.00" stroke-linecap="butt" stroke-linejoin="miter">
	<path stroke='black'  d='M241.3,428.0 L241.3,419.0 M241.3,18.1 L241.3,27.1  '/>	<g transform="translate(241.3,449.9)" stroke="none" fill="black" font-family="Arial" font-size="12.00"  text-anchor="middle">
		<text><tspan font-family="Arial" > 30</tspan></text>
	</g>
</g>
<g fill="none" color="black" stroke="currentColor" stroke-width="1.00" stroke-linecap="butt" stroke-linejoin="miter">
	<path stroke='black'  d='M295.4,428.0 L295.4,419.0 M295.4,18.1 L295.4,27.1  '/>	<g transform="translate(295.4,449.9)" stroke="none" fill="black" font-family="Arial" font-size="12.00"  text-anchor="middle">
		<text><tspan font-family="Arial" > 40</tspan></text>
	</g>
</g>
<g fill="none" color="black" stroke="currentColor" stroke-width="1.00" stroke-linecap="butt" stroke-linejoin="miter">
	<path stroke='black'  d='M349.6,428.0 L349.6,419.0 M349.6,18.1 L349.6,27.1  '/>	<g transform="translate(349.6,449.9)" stroke="none" fill="black" font-family="Arial" font-size="12.00"  text-anchor="middle">
		<text><tspan font-family="Arial" > 50</tspan></text>
	</g>
</g>
<g fill="none" color="black" stroke="currentColor" stroke-width="1.00" stroke-linecap="butt" stroke-linejoin="miter">
	<path stroke='black'  d='M403.8,428.0 L403.8,419.0 M403.8,18.1 L403.8,27.1  '/>	<g transform="translate(403.8,449.9)" stroke="none" fill="black" font-family="Arial" font-size="12.00"  text-anchor="middle">
		<text><tspan font-family="Arial" > 60</tspan></text>
	</g>
</g>
<g fill="none" color="black" stroke="currentColor" stroke-width="1.00" stroke-linecap="butt" stroke-linejoin="miter">
	<path stroke='black'  d='M457.9,428.0 L457.9,419.0 M457.9,18.1 L457.9,27.1  '/>	<g transform="translate(457.9,449.9)" stroke="none" fill="black" font-family="Arial" font-size="12.00"  text-anchor="middle">
		<text><tspan font-family="Arial" > 70</tspan></text>
	</g>
</g>
<g fill="none" color="black" stroke="currentColor" stroke-width="1.00" stroke-linecap="butt" stroke-linejoin="miter">
	<path stroke='black'  d='M512.1,428.0 L512.1,419.0 M512.1,18.1 L512.1,27.1  '/>	<g transform="translate(512.1,449.9)" stroke="none" fill="black" font-family="Arial" font-size="12.00"  text-anchor="middle">
		<text><tspan font-family="Arial" > 80</tspan></text>
	</g>
</g>
<g fill="none" color="black" stroke="currentColor" stroke-width="1.00" stroke-linecap="butt" stroke-linejoin="miter">
	<path stroke='black'  d='M566.3,428.0 L566.3,419.0 M566.3,18.1 L566.3,27.1  '/>	<g transform="translate(566.3,449.9)" stroke="none" fill="black" font-family="Arial" font-size="12.00"  text-anchor="middle">
		<text><tspan font-family="Arial" > 90</tspan></text>
	</g>
</g>
<g fill="none" color="black" stroke="currentColor" stroke-width="1.00" stroke-linecap="butt" stroke-linejoin="miter">
</g>
<g fill="none" color="black" stroke="currentColor" stroke-width="1.00" stroke-linecap="butt" stroke-linejoin="miter">
	<path stroke='black'  d='M78.8,18.1 L78.8,428.0 L615.0,428.0 L615.0,18.1 L78.8,18.1 Z  '/></g>
<g fill="none" color="black" stroke="currentColor" stroke-width="1.00" stroke-linecap="butt" stroke-linejoin="miter">
</g>
	<g id="gnuplot_plot_1" ><title>pages+cached</title>
<g fill="none" color="black" stroke="currentColor" stroke-width="1.00" stroke-linecap="butt" stroke-linejoin="miter">
	<g transform="translate(288.1,467.9)" stroke="none" fill="black" font-family="Arial" font-size="12.00"  text-anchor="end">
		<text><tspan font-family="Arial" >pages+cached</tspan></text>
	</g>
</g>
<g fill="none" color="black" stroke="currentColor" stroke-width="1.00" stroke-linecap="butt" stroke-linejoin="miter">
	<path stroke='rgb(148,   0, 211)'  d='M296.4,464.0 L338.6,464.0 M78.8,420.1 L84.2,96.7 L89.6,95.9 L95.0,95.2 L100.5,94.5 L105.9,91.5
		L111.3,91.4 L116.7,90.5 L122.1,90.5 L127.5,89.9 L133.0,89.3 L138.4,88.8 L143.8,88.7 L149.2,87.0
		L154.6,87.0 L160.0,85.6 L165.5,83.9 L170.9,83.1 L176.3,83.0 L181.7,82.6 L187.1,82.3 L192.5,82.0
		L198.0,82.0 L203.4,81.9 L208.8,81.6 L214.2,80.6 L219.6,80.5 L225.0,79.6 L230.5,79.2 L235.9,79.1
		L241.3,78.9 L246.7,78.5 L252.1,78.5 L257.5,78.3 L262.9,78.2 L268.4,77.4 L273.8,76.9 L279.2,76.6
		L284.6,76.5 L290.0,76.3 L295.4,76.2 L300.9,75.8 L306.3,75.1 L311.7,75.1 L317.1,74.9 L322.5,73.6
		L327.9,72.1 L333.4,71.8 L338.8,71.7 L344.2,70.9 L349.6,69.5 L355.0,68.8 L360.4,68.3 L365.9,67.7
		L371.3,67.5 L376.7,67.0 L382.1,66.7 L387.5,65.7 L392.9,65.5 L398.4,65.4 L403.8,65.0 L409.2,64.3
		L414.6,63.8 L420.0,63.3 L425.4,63.2 L430.9,63.0 L436.3,62.1 L441.7,61.3 L447.1,61.0 L452.5,60.9
		L457.9,60.3 L463.3,59.3 L468.8,59.0 L474.2,58.9 L479.6,58.9 L485.0,58.4 L490.4,57.5 L495.8,56.7
		L501.3,56.1 L506.7,56.1 L512.1,54.1 L517.5,54.1 L522.9,53.9 L528.3,53.6 L533.8,53.6 L539.2,53.5
		L544.6,53.2 L550.0,53.1 L555.4,52.4 L560.8,52.1 L566.3,51.9 L571.7,50.4 L577.1,49.0 L582.5,48.7
		L587.9,48.2 L593.3,47.9 L598.8,47.0 L604.2,45.6 L609.6,34.7 L615.0,26.0  '/></g>
	</g>
	<g id="gnuplot_plot_2" ><title>pages+cached+nointeractive</title>
<g fill="none" color="black" stroke="currentColor" stroke-width="1.00" stroke-linecap="butt" stroke-linejoin="miter">
	<g transform="translate(288.1,485.9)" stroke="none" fill="black" font-family="Arial" font-size="12.00"  text-anchor="end">
		<text><tspan font-family="Arial" >pages+cached+nointeractive</tspan></text>
	</g>
</g>
<g fill="none" color="black" stroke="currentColor" stroke-width="1.00" stroke-linecap="butt" stroke-linejoin="miter">
	<path stroke='rgb(  0, 158, 115)'  d='M296.4,482.0 L338.6,482.0 M78.8,102.9 L84.2,99.6 L89.6,98.7 L95.0,98.1 L100.5,96.1 L105.9,92.8
		L111.3,91.3 L116.7,91.1 L122.1,90.1 L127.5,89.4 L133.0,88.8 L138.4,87.4 L143.8,87.3 L149.2,87.0
		L154.6,85.6 L160.0,85.3 L165.5,84.3 L170.9,84.3 L176.3,84.3 L181.7,84.0 L187.1,83.9 L192.5,83.9
		L198.0,82.8 L203.4,81.7 L208.8,81.7 L214.2,80.5 L219.6,80.5 L225.0,80.3 L230.5,79.7 L235.9,79.4
		L241.3,79.4 L246.7,78.9 L252.1,78.2 L257.5,77.7 L262.9,77.1 L268.4,77.1 L273.8,77.0 L279.2,76.9
		L284.6,76.5 L290.0,76.2 L295.4,75.9 L300.9,75.9 L306.3,75.4 L311.7,74.8 L317.1,74.6 L322.5,74.6
		L327.9,74.2 L333.4,73.4 L338.8,73.4 L344.2,73.2 L349.6,73.1 L355.0,72.4 L360.4,71.5 L365.9,71.4
		L371.3,71.4 L376.7,71.1 L382.1,70.8 L387.5,70.8 L392.9,70.5 L398.4,69.5 L403.8,69.4 L409.2,69.1
		L414.6,68.4 L420.0,68.3 L425.4,68.3 L430.9,68.1 L436.3,68.0 L441.7,68.0 L447.1,67.8 L452.5,67.8
		L457.9,67.1 L463.3,67.0 L468.8,66.9 L474.2,66.9 L479.6,66.7 L485.0,65.8 L490.4,64.7 L495.8,64.4
		L501.3,64.0 L506.7,62.3 L512.1,61.7 L517.5,61.6 L522.9,61.0 L528.3,60.9 L533.8,59.6 L539.2,59.2
		L544.6,58.5 L550.0,58.4 L555.4,57.9 L560.8,57.2 L566.3,57.0 L571.7,56.6 L577.1,54.3 L582.5,53.6
		L587.9,53.6 L593.3,50.7 L598.8,45.4 L604.2,40.7 L609.6,39.9 L615.0,38.1  '/></g>
	</g>
	<g id="gnuplot_plot_3" ><title>score p10=28672</title>
<g fill="none" color="black" stroke="currentColor" stroke-width="1.00" stroke-linecap="butt" stroke-linejoin="miter">
	<g transform="translate(562.7,467.9)" stroke="none" fill="black" font-family="Arial" font-size="12.00"  text-anchor="end">
		<text><tspan font-family="Arial" >score p10=28672</tspan></text>
	</g>
</g>
<g fill="none" color="black" stroke="currentColor" stroke-width="1.00" stroke-linecap="butt" stroke-linejoin="miter">
	<path stroke='rgb( 86, 180, 233)'  d='M571.0,464.0 L613.2,464.0  '/></g>
	</g>
	<g id="gnuplot_plot_4" ><title>score median=131072</title>
<g fill="none" color="black" stroke="currentColor" stroke-width="1.00" stroke-linecap="butt" stroke-linejoin="miter">
	<g transform="translate(562.7,485.9)" stroke="none" fill="black" font-family="Arial" font-size="12.00"  text-anchor="end">
		<text><tspan font-family="Arial" >score median=131072</tspan></text>
	</g>
</g>
<g fill="none" color="black" stroke="currentColor" stroke-width="1.00" stroke-linecap="butt" stroke-linejoin="miter">
	<path stroke='rgb(230, 159,   0)'  d='M571.0,482.0 L613.2,482.0  '/></g>
	</g>
<g fill="none" color="#FFFFFF" stroke="rgb(230, 159,   0)" stroke-width="2.00" stroke-linecap="butt" stroke-linejoin="miter">
</g>
<g fill="none" color="black" stroke="currentColor" stroke-width="2.00" stroke-linecap="butt" stroke-linejoin="miter">
</g>
<g fill="none" color="black" stroke="black" stroke-width="1.00" stroke-linecap="butt" stroke-linejoin="miter">
</g>
<g fill="none" color="black" stroke="currentColor" stroke-width="1.00" stroke-linecap="butt" stroke-linejoin="miter">
	<path stroke='black'  d='M78.8,18.1 L78.8,428.0 L615.0,428.0 L615.0,18.1 L78.8,18.1 Z  '/></g>
<g fill="none" color="black" stroke="currentColor" stroke-width="1.00" stroke-linecap="butt" stroke-linejoin="miter">
</g>
</g>
</svg>
